Catalina-light/actions/16/insert-text-symbolic.svg

<?xml version="1.0" encoding="UTF-8" standalone="no"?>
<svg
   xmlns:dc="http://purl.org/dc/elements/1.1/"
   xmlns:cc="http://creativecommons.org/ns#"
   xmlns:rdf="http://www.w3.org/1999/02/22-rdf-syntax-ns#"
   xmlns:svg="http://www.w3.org/2000/svg"
   xmlns="http://www.w3.org/2000/svg"
   xmlns:sodipodi="http://sodipodi.sourceforge.net/DTD/sodipodi-0.dtd"
   xmlns:inkscape="http://www.inkscape.org/namespaces/inkscape"
   viewBox="0 0 16 16"
   id="svg3429"
   version="1.1"
   inkscape:version="0.91 r13725"
   sodipodi:docname="insert-text-symbolic.svg">
  <metadata
     id="metadata3437">
    <rdf:RDF>
      <cc:Work
         rdf:about="">
        <dc:format>image/svg+xml</dc:format>
        <dc:type
           rdf:resource="http://purl.org/dc/dcmitype/StillImage" />
      </cc:Work>
    </rdf:RDF>
  </metadata>
  <sodipodi:namedview
     pagecolor="#ffffff"
     bordercolor="#666666"
     borderopacity="1"
     objecttolerance="10"
     gridtolerance="10"
     guidetolerance="10"
     inkscape:pageopacity="0"
     inkscape:pageshadow="2"
     inkscape:window-width="640"
     inkscape:window-height="480"
     id="namedview3435"
     showgrid="false"
     inkscape:zoom="22.627417"
     inkscape:cx="-0.00292614"
     inkscape:cy="9.3920043"
     inkscape:current-layer="svg3429" />
  <defs
     id="defs3051">
    <style
       type="text/css"
       id="current-color-scheme">
      .ColorScheme-Text {
        color:#bebebe;
      }
      </style>
  </defs>
  <path
     style="color:#bebebe;fill:currentColor;fill-opacity:1;stroke:none"
     class="ColorScheme-Text"
     d="M 5.0644023,2 2.6145,8.8590565 l 1.2257885,0 0.5207926,-1.4702763 2.387943,0 0.5207927,1.4702763 1.3614289,0 L 6.0440283,2 5.0644023,2 Z m 0.4906503,1.9592519 0.8573821,2.4499023 -1.7147641,0 0.857382,-2.4499023 z m 4.3974322,0.6128943 0,0.8573821 2.1434552,0 c 0.183548,0 0.428691,0.2632763 0.428691,0.428691 l 0,0.428691 -2.143455,0 c -0.3940872,0 -0.7440363,0.164596 -0.964555,0.4152945 C 9.1961024,6.9528861 9.0923592,7.2640601 9.0951028,7.5729834 9.0976749,7.8819068 9.2103907,8.19573 9.4300176,8.4437621 9.6496446,8.691777 9.9918044,8.8590565 10.381176,8.8590565 l 2.143455,0 0.428691,0 0.428691,0 0,-0.361708 c 0.0069,-0.040211 0,-0.066983 0,-0.066983 l 0,-0.428691 0,-2.1434552 c 0,-0.7006269 -0.565786,-1.2860731 -1.286073,-1.2860731 l -2.1434552,0 z m 0.4286912,2.5721462 2.143455,0 0,0.8573821 -2.143455,0 c -0.170568,0 -0.243029,-0.047075 -0.308122,-0.1205694 C 10.007979,7.8076275 9.953548,7.6927511 9.9524848,7.5729834 9.9516275,7.4532157 9.9973259,7.3356815 10.059658,7.2648618 10.121989,7.194042 10.200114,7.1442924 10.381176,7.1442924 Z M 5.6655745,10.570472 8.2377207,14 l 2.5721463,-3.429528 -5.1442925,0 z"
     id="path3433"
     inkscape:connector-curvature="0" />
</svg>

<svg version="1.1" viewBox="0 0 16 16" xmlns="http://www.w3.org/2000/svg">
<defs>
<style id="current-color-scheme" type="text/css">.ColorScheme-Text {
        color:#363636;
      }</style>
</defs>
<path class="ColorScheme-Text" d="m5.0644 2-2.4499 6.8591h1.2258l0.52079-1.4703h2.3879l0.52079 1.4703h1.3614l-2.5872-6.8591h-0.97963zm0.49065 1.9593 0.85738 2.4499h-1.7148l0.85738-2.4499zm4.3974 0.61289v0.85738h2.1435c0.18355 0 0.42869 0.26328 0.42869 0.42869v0.42869h-2.1435c-0.39409 0-0.74404 0.1646-0.96456 0.41529-0.22052 0.25068-0.32426 0.56186-0.32152 0.87078 0.0025721 0.30892 0.11529 0.62275 0.33491 0.87078 0.21963 0.24801 0.56179 0.41529 0.95116 0.41529h2.1435 0.42869 0.42869v-0.36171c0.0069-0.040211 0-0.066983 0-0.066983v-0.42869-2.1435c0-0.70063-0.56579-1.2861-1.2861-1.2861h-2.1435zm0.42869 2.5721h2.1435v0.85738h-2.1435c-0.17057 0-0.24303-0.047075-0.30812-0.12057-0.065075-0.073478-0.11951-0.18835-0.12057-0.30812-8.573e-4 -0.11977 0.044841-0.2373 0.10717-0.30812 0.062331-0.07082 0.14046-0.12057 0.32152-0.12057zm-4.7156 3.4262 2.5721 3.4295 2.5721-3.4295h-5.1443z" color="#363636" fill="#363636"/>
</svg>
